communes/1631.svg

<?xml version="1.0" encoding="UTF-8" standalone="no"?>
<svg
   xmlns:dc="http://purl.org/dc/elements/1.1/"
   xmlns:cc="http://creativecommons.org/ns#"
   xmlns:rdf="http://www.w3.org/1999/02/22-rdf-syntax-ns#"
   xmlns:svg="http://www.w3.org/2000/svg"
   xmlns="http://www.w3.org/2000/svg"
   xmlns:sodipodi="http://sodipodi.sourceforge.net/DTD/sodipodi-0.dtd"
   xmlns:inkscape="http://www.inkscape.org/namespaces/inkscape"
   width="49.332008mm"
   height="59.234032mm"
   viewBox="0 0 174.79845 209.88436"
   id="svg9064"
   version="1.1"
   inkscape:version="0.91 r13725"
   sodipodi:docname="1631.svg">
  <defs
     id="defs9066" />
  <sodipodi:namedview
     id="base"
     pagecolor="#ffffff"
     bordercolor="#666666"
     borderopacity="1.0"
     inkscape:pageopacity="0.0"
     inkscape:pageshadow="2"
     inkscape:zoom="1.1423826"
     inkscape:cx="-160.97784"
     inkscape:cy="5.3584262"
     inkscape:document-units="px"
     inkscape:current-layer="layer1"
     showgrid="false"
     inkscape:window-width="1920"
     inkscape:window-height="1057"
     inkscape:window-x="-8"
     inkscape:window-y="-8"
     inkscape:window-maximized="1"
     fit-margin-top="0"
     fit-margin-left="0"
     fit-margin-right="0"
     fit-margin-bottom="0"
     inkscape:document-rotation="0" />
  <metadata
     id="metadata9069">
    <rdf:RDF>
      <cc:Work
         rdf:about="">
        <dc:format>image/svg+xml</dc:format>
        <dc:type
           rdf:resource="http://purl.org/dc/dcmitype/StillImage" />
        <dc:title />
      </cc:Work>
    </rdf:RDF>
  </metadata>
  <g
     inkscape:label="Ebene 1"
     inkscape:groupmode="layer"
     id="layer1"
     transform="translate(-206.75367,-420.00072)">
    <path
       style="color:#000000;clip-rule:nonzero;display:inline;overflow:visible;visibility:visible;opacity:1;isolation:auto;mix-blend-mode:normal;color-interpolation:sRGB;color-interpolation-filters:linearRGB;solid-color:#000000;solid-opacity:1;fill:#0048ff;fill-opacity:1;fill-rule:nonzero;stroke:none;stroke-width:3.08154416;stroke-linecap:square;stroke-linejoin:round;stroke-miterlimit:10;stroke-dasharray:none;stroke-dashoffset:0;stroke-opacity:1;color-rendering:auto;image-rendering:auto;shape-rendering:auto;text-rendering:auto;enable-background:accumulate"
       d="M 380.63151,421.54149 L 380.63151,529.79627 C 380.63151,584.39189 342.33864,628.34431 294.77305,628.34431 C 247.20746,628.34431 208.91458,584.39189 208.91458,529.79627 L 208.91458,421.54149 Z"
       id="rect5788-6"
       inkscape:connector-curvature="0"
       sodipodi:nodetypes="cssscc" />
    <path
       sodipodi:type="star"
       style="color:#000000;clip-rule:nonzero;display:inline;overflow:visible;visibility:visible;opacity:1;isolation:auto;mix-blend-mode:normal;color-interpolation:sRGB;color-interpolation-filters:linearRGB;solid-color:#000000;solid-opacity:1;fill:#ffe300;fill-opacity:1;fill-rule:nonzero;stroke:#000000;stroke-width:2;stroke-linecap:square;stroke-linejoin:miter;stroke-miterlimit:10;stroke-dasharray:none;stroke-dashoffset:0;stroke-opacity:1;color-rendering:auto;image-rendering:auto;shape-rendering:auto;text-rendering:auto;enable-background:accumulate"
       id="path7091"
       sodipodi:sides="17"
       sodipodi:cx="294.62595"
       sodipodi:cy="486.74969"
       sodipodi:r1="53.971375"
       sodipodi:r2="25.9921"
       sodipodi:arg1="0.68983506"
       sodipodi:arg2="0.87463463"
       inkscape:flatsided="false"
       inkscape:rounded="0"
       inkscape:randomized="0"
       d="M 336.25682,521.09762 L 311.29409,506.69367 L 321.03768,533.81698 L 302.96393,511.36813 L 302.25149,540.17965 L 293.50768,512.71773 L 282.43543,539.32631 L 284.20246,510.5602 L 264.26576,531.3722 L 276.30499,505.18693 L 250.19641,517.39158 L 270.88186,497.32361 L 242.12751,499.2726 L 268.66551,488.03223 L 241.14881,479.46233 L 269.95525,478.56763 L 247.3925,460.63627 L 274.57691,470.20806 L 260.01533,445.33696 L 281.90631,464.08254 L 277.31251,435.63067 L 290.95356,461.01834 L 296.94797,432.82829 L 300.49678,461.4293 L 316.26983,437.3083 L 309.24712,465.25992 L 332.66856,448.46564 L 316.02279,471.99285 L 343.92942,464.79345 L 319.90869,480.71878 L 348.53158,484.08658 L 320.38002,490.25922 L 345.85348,503.73937 L 317.37312,499.32567 Z"
       inkscape:transform-center-x="-0.72354011"
       inkscape:transform-center-y="-0.97629378" />
    <path
       style="display:inline;fill:#ffffff;fill-opacity:1;fill-rule:evenodd;stroke:none;stroke-width:1.99800003;stroke-linecap:butt;stroke-linejoin:miter;stroke-miterlimit:4;stroke-dasharray:none;stroke-opacity:1"
       d="M 208.8262,480.71337 L 208.8262,528.05125 C 209.40338,529.36402 210.09311,530.61568 210.98245,531.75828 C 216.4671,538.80486 227.57983,540.03202 233.06448,547.07859 C 238.54914,554.12518 236.94896,565.03398 242.43362,572.08055 C 247.91828,579.12713 259.03294,580.35427 264.5176,587.40085 C 270.00225,594.44743 268.4021,605.35622 273.88674,612.4028 C 279.3714,619.44939 295.74612,627.72311 295.74612,627.72311 C 295.74612,627.72311 312.12083,619.44939 317.60549,612.4028 C 323.09014,605.35622 321.48997,594.44743 326.97463,587.40085 C 332.45929,580.35427 343.572,579.12713 349.05666,572.08055 C 354.54132,565.03398 352.94114,554.12518 358.42581,547.07859 C 363.91045,540.03202 375.02514,538.80486 380.50979,531.75828 C 380.51269,531.75455 380.5147,531.7503 380.5176,531.74656 C 380.53356,530.96077 380.54299,530.17363 380.54299,529.38328 L 380.54299,481.2036 C 375.74745,483.66265 370.64413,485.80479 367.44534,489.91454 C 361.9539,496.96983 363.55592,507.89244 358.06448,514.94774 C 352.57304,522.00302 341.44653,523.23229 335.9551,530.28758 C 330.46366,537.34288 332.06568,548.26548 326.57424,555.32078 C 321.0828,562.37607 309.95631,563.60533 304.46487,570.66062 C 298.97343,577.71592 295.16604,595.69186 295.16604,595.69186 C 295.16604,595.69186 291.3606,577.71592 285.86916,570.66062 C 280.37772,563.60533 269.25122,562.37607 263.75979,555.32078 C 258.26835,548.26548 259.87037,537.34288 254.37893,530.28758 C 248.8875,523.23229 237.761,522.00302 232.26955,514.94774 C 226.77811,507.89244 228.38014,496.96983 222.8887,489.91454 C 219.47606,485.53005 213.88669,483.39432 208.8262,480.71337 Z"
       id="path5791-4-4-3-8-5"
       inkscape:connector-curvature="0" />
    <path
       style="color:#000000;clip-rule:nonzero;display:inline;overflow:visible;visibility:visible;opacity:1;isolation:auto;mix-blend-mode:normal;color-interpolation:sRGB;color-interpolation-filters:linearRGB;solid-color:#000000;solid-opacity:1;fill:none;fill-opacity:1;fill-rule:nonzero;stroke:#000000;stroke-width:3.08154416;stroke-linecap:square;stroke-linejoin:round;stroke-miterlimit:10;stroke-dasharray:none;stroke-dashoffset:0;stroke-opacity:1;color-rendering:auto;image-rendering:auto;shape-rendering:auto;text-rendering:auto;enable-background:accumulate"
       d="M 380.01135,421.54149 L 380.01135,529.79627 C 380.01135,584.39189 341.71848,628.34431 294.1529,628.34431 C 246.58731,628.34431 208.29444,584.39189 208.29444,529.79627 L 208.29444,421.54149 Z"
       id="rect5788-8-7"
       inkscape:connector-curvature="0"
       sodipodi:nodetypes="cssscc" />
    <path
       style="display:inline;fill:none;fill-rule:evenodd;stroke:#000000;stroke-width:1.99752975;stroke-linecap:butt;stroke-linejoin:miter;stroke-miterlimit:4;stroke-dasharray:none;stroke-opacity:1"
       d="M 208.8262,480.71337 L 208.8262,528.05125 C 209.40338,529.36402 210.09311,530.61568 210.98245,531.75828 C 216.4671,538.80486 227.57983,540.03202 233.06448,547.07859 C 238.54914,554.12518 236.94896,565.03398 242.43362,572.08055 C 247.91828,579.12713 259.03294,580.35427 264.5176,587.40085 C 270.00225,594.44743 268.4021,605.35622 273.88674,612.4028 C 279.3714,619.44939 295.74612,627.72311 295.74612,627.72311 C 295.74612,627.72311 312.12083,619.44939 317.60549,612.4028 C 323.09014,605.35622 321.48997,594.44743 326.97463,587.40085 C 332.45929,580.35427 343.572,579.12713 349.05666,572.08055 C 354.54132,565.03398 352.94114,554.12518 358.42581,547.07859 C 363.91045,540.03202 375.02514,538.80486 380.50979,531.75828 C 380.51269,531.75455 380.5147,531.7503 380.5176,531.74656 C 380.53356,530.96077 380.54299,530.17363 380.54299,529.38328 L 380.54299,481.2036 C 375.74745,483.66265 370.64413,485.80479 367.44534,489.91454 C 361.9539,496.96983 363.55592,507.89244 358.06448,514.94774 C 352.57304,522.00302 341.44653,523.23229 335.9551,530.28758 C 330.46366,537.34288 332.06568,548.26548 326.57424,555.32078 C 321.0828,562.37607 309.95631,563.60533 304.46487,570.66062 C 298.97343,577.71592 295.16604,595.69186 295.16604,595.69186 C 295.16604,595.69186 291.3606,577.71592 285.86916,570.66062 C 280.37772,563.60533 269.25122,562.37607 263.75979,555.32078 C 258.26835,548.26548 259.87037,537.34288 254.37893,530.28758 C 248.8875,523.23229 237.761,522.00302 232.26955,514.94774 C 226.77811,507.89244 228.38014,496.96983 222.8887,489.91454 C 219.47606,485.53005 213.88669,483.39432 208.8262,480.71337 Z"
       id="path5791-4-4-3-8"
       inkscape:connector-curvature="0" />
  </g>
</svg>

<?xml version="1.0" encoding="UTF-8"?>
<svg width="49.332mm" height="59.234mm" version="1.1" viewBox="0 0 174.8 209.88" xmlns="http://www.w3.org/2000/svg" xmlns:cc="http://creativecommons.org/ns#" xmlns:dc="http://purl.org/dc/elements/1.1/" xmlns:rdf="http://www.w3.org/1999/02/22-rdf-syntax-ns#">
<metadata>
<rdf:RDF>
<cc:Work rdf:about="">
<dc:format>image/svg+xml</dc:format>
<dc:type rdf:resource="http://purl.org/dc/dcmitype/StillImage"/>
<dc:title/>
</cc:Work>
</rdf:RDF>
</metadata>
<g transform="translate(-206.75 -420)">
<path d="m380.63 421.54v108.25c0 54.596-38.293 98.548-85.858 98.548s-85.858-43.952-85.858-98.548v-108.25z" color="#000000" color-rendering="auto" fill="#0048ff" image-rendering="auto" shape-rendering="auto" solid-color="#000000" style="isolation:auto;mix-blend-mode:normal"/>
<path d="m336.26 521.1-24.963-14.404 9.7436 27.123-18.074-22.449-0.71244 28.812-8.7438-27.462-11.072 26.609 1.767-28.766-19.937 20.812 12.039-26.185-26.109 12.205 20.685-20.068-28.754 1.949 26.538-11.24-27.517-8.5699 28.806-0.8947-22.563-17.931 27.184 9.5718-14.562-24.871 21.891 18.746-4.5938-28.452 13.641 25.388 5.9944-28.19 3.5488 28.601 15.773-24.121-7.0227 27.952 23.421-16.794-16.646 23.527 27.907-7.1994-24.021 15.925 28.623 3.3678-28.152 6.1726 25.473 13.48-28.48-4.4137z" color="#000000" color-rendering="auto" fill="#ffe300" image-rendering="auto" shape-rendering="auto" solid-color="#000000" stroke="#000" stroke-linecap="square" stroke-miterlimit="10" stroke-width="2" style="isolation:auto;mix-blend-mode:normal"/>
<path d="m208.83 480.71v47.338c0.57718 1.3128 1.2669 2.5644 2.1562 3.707 5.4846 7.0466 16.597 8.2737 22.082 15.32 5.4847 7.0466 3.8845 17.955 9.3691 25.002 5.4847 7.0466 16.599 8.2737 22.084 15.32 5.4846 7.0466 3.8845 17.955 9.3691 25.002 5.4847 7.0466 21.859 15.32 21.859 15.32s16.375-8.2737 21.859-15.32c5.4846-7.0466 3.8845-17.955 9.3691-25.002s16.597-8.2737 22.082-15.32c5.4847-7.0466 3.8845-17.955 9.3692-25.002 5.4846-7.0466 16.599-8.2737 22.084-15.32 0.0029-0.00373 0.00491-0.00798 0.00781-0.01172 0.01596-0.78579 0.02539-1.5729 0.02539-2.3633v-48.18c-4.7955 2.459-9.8989 4.6012-13.098 8.7109-5.4914 7.0553-3.8894 17.978-9.3809 25.033-5.4914 7.0553-16.618 8.2846-22.109 15.34-5.4914 7.0553-3.8894 17.978-9.3809 25.033-5.4914 7.0553-16.618 8.2846-22.109 15.34-5.4914 7.0553-9.2988 25.031-9.2988 25.031s-3.8054-17.976-9.2969-25.031c-5.4914-7.0553-16.618-8.2846-22.109-15.34-5.4914-7.0553-3.8894-17.978-9.3809-25.033-5.4914-7.0553-16.618-8.2846-22.109-15.34-5.4914-7.0553-3.8894-17.978-9.3808-25.033-3.4126-4.3845-9.002-6.5202-14.062-9.2012z" fill="#fff" fill-rule="evenodd"/>
<path d="m380.01 421.54v108.25c0 54.596-38.293 98.548-85.858 98.548-47.566 0-85.858-43.952-85.858-98.548v-108.25z" color="#000000" color-rendering="auto" fill="none" image-rendering="auto" shape-rendering="auto" solid-color="#000000" stroke="#000" stroke-linecap="square" stroke-linejoin="round" stroke-miterlimit="10" stroke-width="3.0815" style="isolation:auto;mix-blend-mode:normal"/>
<path d="m208.83 480.71v47.338c0.57718 1.3128 1.2669 2.5644 2.1562 3.707 5.4846 7.0466 16.597 8.2737 22.082 15.32 5.4847 7.0466 3.8845 17.955 9.3691 25.002 5.4847 7.0466 16.599 8.2737 22.084 15.32 5.4846 7.0466 3.8845 17.955 9.3691 25.002 5.4847 7.0466 21.859 15.32 21.859 15.32s16.375-8.2737 21.859-15.32c5.4846-7.0466 3.8845-17.955 9.3691-25.002s16.597-8.2737 22.082-15.32c5.4847-7.0466 3.8845-17.955 9.3692-25.002 5.4846-7.0466 16.599-8.2737 22.084-15.32 0.0029-0.00373 0.00491-0.00798 0.00781-0.01172 0.01596-0.78579 0.02539-1.5729 0.02539-2.3633v-48.18c-4.7955 2.459-9.8989 4.6012-13.098 8.7109-5.4914 7.0553-3.8894 17.978-9.3809 25.033-5.4914 7.0553-16.618 8.2846-22.109 15.34-5.4914 7.0553-3.8894 17.978-9.3809 25.033-5.4914 7.0553-16.618 8.2846-22.109 15.34-5.4914 7.0553-9.2988 25.031-9.2988 25.031s-3.8054-17.976-9.2969-25.031c-5.4914-7.0553-16.618-8.2846-22.109-15.34-5.4914-7.0553-3.8894-17.978-9.3809-25.033-5.4914-7.0553-16.618-8.2846-22.109-15.34-5.4914-7.0553-3.8894-17.978-9.3808-25.033-3.4126-4.3845-9.002-6.5202-14.062-9.2012z" fill="none" stroke="#000" stroke-width="1.9975"/>
</g>
</svg>
